X: 18987
T: Inishowen, The
R: waltz
M: 3/4
K: Gmajor
D2|G3ABc|dg3a2|b3agf|agd2B2|
c3ABc|dg2gfg|a3gfe|dcBAGF|
G3ABc|dg3a2|b3agf|agd3B|
c2DEFG|ABcdef|g2dcAF|G4:|
|:B2|B2GBDG|BGBcde|c2GcEc|gcbcgc|
B2GBDG|BGBcde|A2FADD|gagedc|
B2GBDG|BGBcde|c2GcEc|gcbcgc|
B2GBDG|BcdBgd|bgdcAF|G4:|

